X: 33246
T: Pull The Knife And Stick It Again
R: jig
M: 6/8
K: Adorian
G|:A3 cBA|GEA GEG|A2A cBA|efd ed^c|
A3 cBA|GEA GAB|cBA BAG|1 EAG A2G:|2 EAG A2a||
|:age edB|AGE G2a|age edB|dBd g2b|
age edB|AGE GAB|c2A BAG|1 EAG A2a:|2 EAG A2G||

